X:1
T:Long Strand
S:Paul O'Shaughnessy
Z:Juergen.Gier@post.rwth-aachen.de
M:C|
L:1/8
K:DDor
AD (3DDD A2dc|AcAG EFGc|AD (3DDD A2dc|1AcGE EDEG:|2AcGE EDDB|]\
c2ec gcec|(3ccc Bc AddB|c2ec gcec|AcGE EDDB|\
c2ec gcec|(3ccc Bc Addg|f3f efed|(3cdc Bc Addc|]
